engine-ui/packages/console-ui/dist/public/rdos/img/icon/save.svg

<?xml version="1.0" standalone="no"?><!DOCTYPE svg PUBLIC "-//W3C//DTD SVG 1.1//EN" "http://www.w3.org/Graphics/SVG/1.1/DTD/svg11.dtd"><svg t="1493193222990" class="icon" style="" viewBox="0 0 1024 1024" version="1.1" xmlns="http://www.w3.org/2000/svg" p-id="25585" xmlns:xlink="http://www.w3.org/1999/xlink" width="200" height="200"><defs><style type="text/css"></style></defs><path d="M804.141176 39.152941H39.152941v963.764706h963.764706V201.788235l-198.776471-162.635294z m-493.929411 60.235294h391.529411v180.705883h-391.529411v-180.705883z m481.882353 843.294118h-542.117647v-331.294118h542.117647v331.294118z m150.588235 0h-90.352941v-391.529412h-662.588236v391.529412h-90.352941v-843.294118h150.588236v240.941177h512v-240.941177h18.070588l162.635294 129.505883v713.788235z" fill="#515151" p-id="25586"></path><path d="M310.211765 671.623529h331.294117v60.235295h-331.294117zM310.211765 792.094118h210.823529v60.235294h-210.823529zM611.388235 129.505882h60.235294v120.470589h-60.235294z" fill="#515151" p-id="25587"></path></svg>

<svg class="icon" viewBox="0 0 1024 1024" xmlns="http://www.w3.org/2000/svg" width="200" height="200"><defs><style/></defs><path d="M804.141 39.153H39.153v963.765h963.765v-801.13L804.14 39.153zm-493.93 60.235h391.53v180.706h-391.53V99.388zm481.883 843.294H249.976V611.388h542.118v331.294zm150.588 0H852.33v-391.53H189.741v391.53H99.388V99.388h150.588V340.33h512V99.39h18.071l162.635 129.505v713.788z" fill="#515151"/><path d="M310.212 671.624h331.294v60.235H310.212zm0 120.47h210.823v60.235H310.212zm301.176-662.588h60.236v120.47h-60.236z" fill="#515151"/></svg>
